svg/emoji_u23ef.svg

<svg width="128" height="128" viewBox="0 0 128 128" fill="none" xmlns="http://www.w3.org/2000/svg">
<path d="M116.46 3.95996H12.46C8.03996 3.95996 4.45996 7.53996 4.45996 11.96V115.96C4.45996 120.38 8.03996 123.96 12.46 123.96H116.46C120.88 123.96 124.46 120.38 124.46 115.96V11.96C124.46 7.53996 120.88 3.95996 116.46 3.95996Z" fill="#427687" style="fill:#427687;fill:color(display-p3 0.2588 0.4627 0.5294);fill-opacity:1;"/>
<path d="M110.16 3.95996H11.96C7.82998 3.98996 4.48998 7.32996 4.45998 11.46V109.36C4.44998 113.5 7.79998 116.85 11.94 116.86C11.95 116.86 11.95 116.86 11.96 116.86H110.06C114.2 116.87 117.55 113.52 117.56 109.38C117.56 109.37 117.56 109.37 117.56 109.36V11.46C117.65 7.40996 114.43 4.04996 110.38 3.95996C110.31 3.95996 110.23 3.95996 110.16 3.95996Z" fill="#8CAFBF" style="fill:#8CAFBF;fill:color(display-p3 0.5490 0.6863 0.7490);fill-opacity:1;"/>
<path opacity="0.75" d="M40.1601 12.8598C40.1601 10.5598 38.5601 9.85984 29.3601 10.1598C21.6601 10.4598 17.8601 11.3598 15.5601 14.1598C13.2601 16.9598 12.6601 22.6598 12.5601 29.4598C12.5601 34.2598 12.5601 38.7598 15.0601 38.7598C18.4601 38.7598 18.4601 30.8598 21.2601 26.4598C26.6601 17.7598 40.1601 15.8598 40.1601 12.8598Z" fill="#A0C8D6" style="fill:#A0C8D6;fill:color(display-p3 0.6275 0.7843 0.8392);fill-opacity:1;"/>
<path d="M82.56 91.96H72.36C71.31 91.96 70.46 91.11 70.46 90.06V37.86C70.46 36.81 71.31 35.96 72.36 35.96H82.66C83.71 35.96 84.56 36.81 84.56 37.86V90.16C84.46 91.19 83.59 91.97 82.56 91.96Z" fill="#FAFAFA" style="fill:#FAFAFA;fill:color(display-p3 0.9804 0.9804 0.9804);fill-opacity:1;"/>
<path d="M104.56 91.96H94.36C93.31 91.96 92.46 91.11 92.46 90.06V37.86C92.46 36.81 93.31 35.96 94.36 35.96H104.66C105.71 35.96 106.56 36.81 106.56 37.86V90.16C106.46 91.19 105.59 91.97 104.56 91.96Z" fill="#FAFAFA" style="fill:#FAFAFA;fill:color(display-p3 0.9804 0.9804 0.9804);fill-opacity:1;"/>
<path d="M18.4601 63.9598V38.2598C18.4301 37.0098 19.4201 35.9798 20.6701 35.9498C21.0901 35.9398 21.5001 36.0498 21.8601 36.2598L65.2601 61.9598C66.3901 62.6798 66.7301 64.1798 66.0101 65.3098C65.8201 65.6098 65.5601 65.8598 65.2601 66.0598L21.8601 91.6598C20.7801 92.2898 19.4001 91.9298 18.7701 90.8498C18.5601 90.4898 18.4501 90.0798 18.4601 89.6598V63.9598Z" fill="#FAFAFA" style="fill:#FAFAFA;fill:color(display-p3 0.9804 0.9804 0.9804);fill-opacity:1;"/>
</svg>

<?xml version="1.0" encoding="utf-8"?>
<!-- Generator: Adobe Illustrator 25.2.3, SVG Export Plug-In . SVG Version: 6.00 Build 0)  -->
<svg version="1.1" id="Layer_1" xmlns="http://www.w3.org/2000/svg" xmlns:xlink="http://www.w3.org/1999/xlink" x="0px" y="0px"
	 viewBox="0 0 128 128" style="enable-background:new 0 0 128 128;" xml:space="preserve">
<g>
	<path style="fill:#F77E00;" d="M116.46,3.96h-104c-4.42,0-8,3.58-8,8v104c0,4.42,3.58,8,8,8h104c4.42,0,8-3.58,8-8v-104
		C124.46,7.54,120.88,3.96,116.46,3.96z"/>
	<path style="fill:#FF9800;" d="M110.16,3.96h-98.2c-4.13,0.03-7.47,3.37-7.5,7.5v97.9c-0.01,4.14,3.34,7.49,7.48,7.5
		c0.01,0,0.01,0,0.02,0h98.1c4.14,0.01,7.49-3.34,7.5-7.48c0-0.01,0-0.01,0-0.02v-97.9c0.09-4.05-3.13-7.41-7.18-7.5
		C110.31,3.96,110.23,3.96,110.16,3.96z"/>
	<path style="opacity:0.75;fill:#FFBD52;enable-background:new    ;" d="M40.16,12.86c0-2.3-1.6-3-10.8-2.7
		c-7.7,0.3-11.5,1.2-13.8,4s-2.9,8.5-3,15.3c0,4.8,0,9.3,2.5,9.3c3.4,0,3.4-7.9,6.2-12.3C26.66,17.76,40.16,15.86,40.16,12.86z"/>
	<path style="fill:#FAFAFA;" d="M82.56,91.96h-10.2c-1.05,0-1.9-0.85-1.9-1.9l0,0v-52.2c0-1.05,0.85-1.9,1.9-1.9l0,0h10.3
		c1.05,0,1.9,0.85,1.9,1.9v0v52.3C84.46,91.19,83.59,91.97,82.56,91.96z"/>
	<path style="fill:#FAFAFA;" d="M104.56,91.96h-10.2c-1.05,0-1.9-0.85-1.9-1.9l0,0v-52.2c0-1.05,0.85-1.9,1.9-1.9l0,0h10.3
		c1.05,0,1.9,0.85,1.9,1.9v0v52.3C106.46,91.19,105.59,91.97,104.56,91.96z"/>
	<path style="fill:#FAFAFA;" d="M18.46,63.96v-25.7c-0.03-1.25,0.96-2.28,2.21-2.31c0.42-0.01,0.83,0.1,1.19,0.31l43.4,25.7
		c1.13,0.72,1.47,2.22,0.75,3.35c-0.19,0.3-0.45,0.55-0.75,0.75l-43.4,25.6c-1.08,0.63-2.46,0.27-3.09-0.81
		c-0.21-0.36-0.32-0.77-0.31-1.19V63.96z"/>
</g>
</svg>
